img/trainers/pine-tree.svg

<svg preserveAspectRatio="none" width="23" height="23" viewBox="0 0 23 23" fill="none" xmlns="http://www.w3.org/2000/svg">
<g id="pine-tree" clip-path="url(#clip0_260_714)">
<g id="Group">
<g id="Group_2">
<path id="Vector" d="M22.8826 16.6365L18.2637 11.472H20.4953C20.7559 11.4714 20.9666 11.2644 20.966 11.0098C20.9657 10.9084 20.9313 10.8099 20.868 10.7296L17.1596 5.96623H19.0469C19.3074 5.96589 19.5184 5.75919 19.5181 5.50454C19.518 5.39271 19.4762 5.28475 19.4007 5.20077L14.8619 0.156126C14.6896 -0.0348923 14.3914 -0.0531642 14.196 0.115317C14.1812 0.128056 14.1673 0.141716 14.1542 0.156126L9.61074 5.19616C9.43618 5.38522 9.45145 5.67682 9.64483 5.84744C9.73247 5.92473 9.84653 5.9671 9.9646 5.96623H11.8754L10.7336 7.42337L7.67634 4.02492C7.50401 3.8339 7.20583 3.81563 7.01039 3.98411C6.99558 3.99685 6.98167 4.01051 6.96863 4.02492L3.08567 8.33639C2.9137 8.52769 2.93298 8.81906 3.12872 8.98714C3.21465 9.06092 3.32511 9.10167 3.43953 9.10184H4.93515L1.83067 13.0721C1.67692 13.2777 1.72274 13.5662 1.93311 13.7165C2.01166 13.7726 2.10609 13.8036 2.20339 13.8053H3.94908L0.113296 18.1167C-0.0560825 18.3102 -0.032905 18.6013 0.165135 18.7669C0.249353 18.8373 0.356335 18.8765 0.46715 18.8776H5.68532V22.1054C5.68532 22.5994 6.09514 23 6.60062 23H8.03963C8.54511 23.0025 8.95706 22.6041 8.95965 22.11C8.95965 22.1085 8.95965 22.107 8.95965 22.1054V18.8776H12.8756V22.1054C12.8756 22.5994 13.2855 23 13.7909 23H15.2299C15.7354 23 16.1453 22.5994 16.1453 22.1054V17.402H22.5288C22.7893 17.4017 23.0003 17.195 23 16.9403C22.9998 16.8285 22.9581 16.7205 22.8826 16.6365ZM8.01604 22.0777L6.62893 22.1054L6.60062 18.8776H8.01604V22.0777ZM12.8756 17.9553H1.50512L5.36449 13.6531C5.53918 13.4642 5.52402 13.1726 5.3307 13.0018C5.24058 12.9223 5.12257 12.8797 5.0012 12.883H3.16116L6.26564 8.91279C6.42458 8.71099 6.38607 8.42146 6.1796 8.26612C6.09738 8.20428 5.99665 8.17061 5.89292 8.17038H4.4775L7.30833 5.02094L10.1392 8.16116L8.14815 10.7342C7.98921 10.936 8.02772 11.2255 8.23419 11.3809C8.31641 11.4427 8.41714 11.4764 8.52087 11.4766H10.7572L6.13825 16.6411C5.96628 16.8325 5.98557 17.1238 6.18131 17.2919C6.26723 17.3657 6.3777 17.4064 6.49211 17.4066H12.8756V17.9553ZM15.2016 22.0685L13.8193 22.1054L13.7909 17.402H15.2064L15.2016 22.0685ZM15.2299 16.4798H7.53008L12.1491 11.3152C12.321 11.1239 12.3017 10.8325 12.106 10.6645C12.0201 10.5907 11.9096 10.5499 11.7952 10.5498H9.47864L13.2059 5.78178C13.3622 5.57808 13.32 5.28902 13.1116 5.13622C13.0312 5.07731 12.9337 5.04497 12.8332 5.04399H11.0262L14.527 1.16137L18.0089 5.04399H16.1877C15.9272 5.04463 15.7164 5.25155 15.717 5.50621C15.7173 5.6076 15.7517 5.70605 15.815 5.7864L19.5187 10.5498H17.221C16.9604 10.5501 16.7495 10.7568 16.7498 11.0115C16.7499 11.1233 16.7916 11.2312 16.8671 11.3152L21.4861 16.4798H15.2299Z" fill="#2D383F"/>
</g>
</g>
</g>
<defs>
<clipPath id="clip0_260_714">
<rect width="23" height="23" fill="white"/>
</clipPath>
</defs>
</svg>

<svg preserveAspectRatio="none" width="23" height="23" fill="none" xmlns="http://www.w3.org/2000/svg"><g clip-path="url(#a)"><path d="m22.883 16.637-4.62-5.165h2.232c.26 0 .472-.208.471-.462 0-.102-.035-.2-.098-.28L17.16 5.966h1.887c.26 0 .471-.207.471-.461a.455.455 0 0 0-.117-.304L14.86.156a.48.48 0 0 0-.707 0l-4.543 5.04c-.175.19-.16.48.034.651.087.078.202.12.32.12h1.91l-1.141 1.456-3.058-3.398a.48.48 0 0 0-.707 0L3.086 8.336a.454.454 0 0 0 .043.651.478.478 0 0 0 .31.115h1.496l-3.104 3.97a.454.454 0 0 0 .102.645.48.48 0 0 0 .27.088H3.95L.113 18.117a.454.454 0 0 0 .052.65c.084.07.191.11.302.11h5.218v3.228c0 .494.41.895.916.895H8.04a.905.905 0 0 0 .92-.89V18.878h3.916v3.227c0 .494.41.895.915.895h1.439c.505 0 .915-.4.915-.895v-4.703h6.384c.26 0 .471-.207.471-.462a.456.456 0 0 0-.117-.303Zm-14.867 5.44-1.387.028-.028-3.227h1.415v3.2Zm4.86-4.122H1.506l3.858-4.302a.454.454 0 0 0-.033-.651.479.479 0 0 0-.33-.119h-1.84l3.105-3.97a.454.454 0 0 0-.086-.647.479.479 0 0 0-.287-.096H4.478l2.83-3.15 2.831 3.141-1.99 2.573a.454.454 0 0 0 .085.647.479.479 0 0 0 .287.096h2.236L6.138 16.64a.454.454 0 0 0 .043.65.478.478 0 0 0 .311.116h6.384v.548Zm2.326 4.114-1.383.036-.028-4.703h1.415l-.004 4.666Zm.028-5.59h-7.7l4.62-5.164a.454.454 0 0 0-.044-.65.478.478 0 0 0-.31-.115H9.478l3.727-4.768a.454.454 0 0 0-.094-.646.48.48 0 0 0-.279-.092h-1.807l3.501-3.883 3.482 3.883h-1.821a.467.467 0 0 0-.471.462c0 .102.035.2.098.28l3.704 4.764H17.22a.466.466 0 0 0-.471.461c0 .112.042.22.117.304l4.62 5.165H15.23Z" fill="#2D383F"/></g><defs><clipPath id="a"><path fill="#fff" d="M0 0h23v23H0z"/></clipPath></defs></svg>
